X:1
T:Title
%%score { ( 1 3 ) | ( 2 4 ) }
L:1/8
M:9/8
K:Bb
V:1 treble nm="Grand Piano"
V:3 treble 
V:2 bass 
V:4 bass 
V:1
 z3 z3[Q:1/4=100] [DF][_D=E][=DF] | [EG]3 [DF]3 D[DF][DB] | [EB]3 [EA]3 EDE | A3 G3 GFE | %4
 D6 [DF][_D=E][=DF] | [Fd]3 [DFB]3 [DB][Ec][Fd] | [Ge]3 G3 BAG | F3 B3 ABc |[M:3/4] [DB]6 | %9
[M:3/8] [^Fd][Fd][Fd] |[M:9/8] [^Fd]3 [FA]3 [FA][GB][Ac] | [DAc]3 [DGB]3 [=EGc][EGc][EGc] | %12
 [=EGc]3 [EG]3 [EG][EA][EB] | A6 z3 | [EG]3 [DF]3 Bcd | [Ge]3 G3 BAG | F3 B3 ABc |[M:3/4] [DB]6 |] %18
V:2
 z3 z3 [B,,B,][B,,B,][B,,B,] | [B,,B,]3 [B,,B,]3 [B,,F,][B,,B,][B,,F,] | %2
 [C,F,]3 [C,F,]3 [F,A,C][F,_A,=B,][F,=A,C] | [F,CE]3 [F,B,E]3 [F,A,E][F,A,D][F,C] | %4
 [B,,F,B,]6 [B,,B,][B,,B,][B,,B,] | [B,,B,]3 B,,3 B,B,B, | %6
 [E,B,]3 [E,B,E]3 [=E,G,_D][E,A,D][E,B,D] | [F,B,D]3 [F,B,D]3 [F,CE][F,B,D][F,A,E] | %8
[M:3/4] [B,,B,]6 |[M:3/8] [D,A,][D,A,][D,A,] |[M:9/8] [D,A,]3 [D,D]3 [D,D][D,D][D,D] | %11
 G,3 G,3 C,C,C, | C,3 [C,C]3 [C,C][C,C][C,C] | F3 z3 z3 | %14
 [B,,B,]3 [B,,B,]3[K:treble] [B,D][B,E][B,F] | [E,B,]3 [E,B,E]3 [=E,G,_D][E,A,D][E,B,D] | %16
 z3 z3 .[CE]3 |[M:3/4] [B,,F,B,]6 |] %18
V:3
 x9 | x9 | x9 | x9 | x9 | x9 | x9 | x9 |[M:3/4] x6 |[M:3/8] x3 |[M:9/8] x9 | x9 | x9 | %13
 z3 E3 [DF][_D=E][=DF] | x9 | x9 | x9 |[M:3/4] x6 |] %18
V:4
 x9 | x9 | x9 | x9 | x9 | x9 | x9 | x9 |[M:3/4] x6 |[M:3/8] x3 |[M:9/8] x9 | x9 | x9 | %13
 [F,C]6 [B,,B,][B,,B,][B,,B,] | x6[K:treble] x3 | x9 | [F,B,D]3 [F,B,D]3 F,-[F,B,D][F,A,E] | %17
[M:3/4] x6 |] %18

